images/support.svg

<svg width="76" height="92" viewBox="0 0 76 92" fill="none" xmlns="http://www.w3.org/2000/svg">
<path d="M67.1667 54.3333V71H58.8333V54.3333H67.1667ZM17.1667 54.3333V71H13C10.7083 71 8.83333 69.125 8.83333 66.8333V54.3333H17.1667ZM38 0.166626C17.2917 0.166626 0.5 16.9583 0.5 37.6666V66.8333C0.5 73.75 6.08333 79.3333 13 79.3333H25.5V46H8.83333V37.6666C8.83333 21.5416 21.875 8.49996 38 8.49996C54.125 8.49996 67.1667 21.5416 67.1667 37.6666V46H50.5V79.3333H67.1667V83.5H38V91.8333H63C69.9167 91.8333 75.5 86.25 75.5 79.3333V37.6666C75.5 16.9583 58.7083 0.166626 38 0.166626Z" fill="#3077C6"/>
</svg>

<svg width="76" height="92" fill="none" xmlns="http://www.w3.org/2000/svg"><path d="M67.167 54.333V71h-8.334V54.333h8.334zm-50 0V71H13a4.179 4.179 0 01-4.167-4.167v-12.5h8.334zM38 .167C17.292.167.5 16.958.5 37.667v29.166c0 6.917 5.583 12.5 12.5 12.5h12.5V46H8.833v-8.333C8.833 21.542 21.875 8.5 38 8.5s29.167 13.042 29.167 29.167V46H50.5v33.333h16.667V83.5H38v8.333h25c6.917 0 12.5-5.583 12.5-12.5V37.667c0-20.709-16.792-37.5-37.5-37.5z" fill="#3077C6"/></svg>
